img/social-icons/telegram.svg

<svg width="28" height="28" viewBox="0 0 28 28" fill="none" xmlns="http://www.w3.org/2000/svg">
<path fill-rule="evenodd" clip-rule="evenodd" d="M22.1667 28H5.83333C2.61217 28 0 25.3878 0 22.1667V5.83333C0 2.61217 2.61217 0 5.83333 0H22.1667C25.389 0 28 2.61217 28 5.83333V22.1667C28 25.3878 25.389 28 22.1667 28ZM18.9653 21.994C19.2162 22.1725 19.5382 22.2168 19.8263 22.1072C20.1133 21.9987 20.3257 21.7525 20.3898 21.4538C21.0653 18.2782 22.7057 10.2375 23.3205 7.34883C23.366 7.13067 23.289 6.90433 23.1187 6.7585C22.9472 6.61383 22.7092 6.57183 22.498 6.65C19.2372 7.85633 9.19333 11.6247 5.08783 13.1448C4.82767 13.2405 4.6585 13.4913 4.66667 13.7667C4.676 14.0408 4.8615 14.28 5.1275 14.3605C6.9685 14.91 9.38583 15.6765 9.38583 15.6765C9.38583 15.6765 10.514 19.0878 11.1032 20.8215C11.1767 21.0397 11.3482 21.2112 11.5722 21.2695C11.7973 21.3278 12.0353 21.2672 12.2033 21.1085C13.1495 20.216 14.6113 18.8358 14.6113 18.8358C14.6113 18.8358 17.3892 20.8728 18.9653 21.994ZM10.402 15.246L11.7075 19.5533L11.998 16.8257C11.998 16.8257 17.0427 12.2757 19.9197 9.681C20.0037 9.60517 20.0153 9.478 19.9453 9.38817C19.8753 9.29833 19.7482 9.27733 19.6525 9.338C16.3193 11.4672 10.402 15.246 10.402 15.246Z" fill="#FAFAFA"/>
</svg>

<svg width="28" height="28" fill="none" xmlns="http://www.w3.org/2000/svg"><path fill-rule="evenodd" clip-rule="evenodd" d="M22.167 28H5.833A5.834 5.834 0 010 22.167V5.833A5.834 5.834 0 015.833 0h16.334A5.833 5.833 0 0128 5.833v16.334A5.833 5.833 0 0122.167 28zm-3.202-6.006a.92.92 0 00.861.113.902.902 0 00.564-.653c.675-3.176 2.316-11.216 2.93-14.105a.613.613 0 00-.201-.59.627.627 0 00-.621-.109c-3.26 1.206-13.305 4.975-17.41 6.495a.643.643 0 00-.421.622.647.647 0 00.46.594c1.841.549 4.259 1.316 4.259 1.316s1.128 3.41 1.717 5.145a.68.68 0 00.47.448.672.672 0 00.63-.162c.947-.892 2.408-2.272 2.408-2.272s2.778 2.037 4.354 3.158zm-8.563-6.748l1.306 4.307.29-2.727L19.92 9.68a.215.215 0 00.025-.293.221.221 0 00-.293-.05c-3.333 2.13-9.25 5.908-9.25 5.908z" fill="#FAFAFA"/></svg>
